images/favorites.svg

<svg width="24" height="24" viewBox="0 0 24 24" fill="none" xmlns="http://www.w3.org/2000/svg">
<path fill-rule="evenodd" clip-rule="evenodd" d="M3.48883 6.00387C2.76317 7.24787 2.52434 8.97403 2.9702 10.7575C3.13065 11.3992 3.59709 12.2243 4.33633 13.174C5.06122 14.1052 5.98646 15.0787 6.96642 16.0127C8.90951 17.8648 11.0007 19.4985 12.0001 20.254C12.9995 19.4985 15.0906 17.8648 17.0337 16.0127C18.0137 15.0787 18.9389 14.1052 19.6638 13.174C20.4031 12.2243 20.8695 11.3992 21.03 10.7575C21.4758 8.97403 21.237 7.24787 20.5113 6.00387C19.803 4.78965 18.6203 4 17.0001 4C15.5905 4 14.597 5.04228 13.8945 6.44721C13.557 7.12228 13.3276 7.80745 13.1824 8.33015C13.1103 8.58959 13.0603 8.80435 13.0287 8.95172C12.9168 9.47392 12.3144 9.5 12.0001 9.5C11.6858 9.5 11.0824 9.46905 10.9715 8.95172C10.9399 8.80436 10.8899 8.58959 10.8178 8.33015C10.6726 7.80745 10.4432 7.12229 10.1057 6.44722C9.40314 5.04228 8.40962 4 7.00004 4C5.37985 4 4.19712 4.78965 3.48883 6.00387ZM12.0001 5.77011C12.0342 5.69784 12.0694 5.62535 12.1057 5.55279C12.9032 3.95772 15.4096 1 18 1C20.3798 1 21.1972 3.21035 22.2389 4.99613C23.2632 6.75212 23.5244 9.02597 22.9702 11.2425C22.7077 12.2927 22.0355 13.3832 21.242 14.4025C20.4342 15.4402 19.4328 16.4891 18.4136 17.4605C16.3743 19.4042 14.1958 21.1022 13.1811 21.8683C12.4804 22.3974 11.5198 22.3974 10.8191 21.8683C9.80439 21.1022 7.62589 19.4042 5.58654 17.4605C4.56739 16.4891 3.56592 15.4402 2.75812 14.4025C1.96467 13.3832 1.29246 12.2927 1.02992 11.2425C0.475774 9.02597 0.736944 6.75213 1.76127 4.99613C2.80297 3.21035 4.12019 1 6.5 1C9.0904 1 11.097 3.95772 11.8945 5.55278C11.9308 5.62535 11.966 5.69784 12.0001 5.77011Z" fill="#0F0F0F"/>
</svg>

<svg xmlns="http://www.w3.org/2000/svg" width="24" height="24" fill="none" viewBox="0 0 24 24"><path fill="#0f0f0f" fill-rule="evenodd" d="M3.489 6.004c-.726 1.244-.965 2.97-.519 4.754.16.641.627 1.466 1.366 2.416.725.931 1.65 1.905 2.63 2.839 1.944 1.852 4.035 3.485 5.034 4.241 1-.756 3.09-2.39 5.034-4.241.98-.934 1.905-1.908 2.63-2.839.74-.95 1.205-1.775 1.366-2.416.446-1.784.207-3.51-.519-4.754C19.803 4.79 18.621 4 17.001 4c-1.41 0-2.404 1.042-3.107 2.447a10.8 10.8 0 0 0-.865 2.505c-.112.522-.715.548-1.029.548s-.918-.031-1.028-.548a11 11 0 0 0-.154-.622 10.7 10.7 0 0 0-.712-1.883C9.403 5.042 8.41 4 7 4c-1.62 0-2.803.79-3.511 2.004M12 5.77l.106-.217C12.903 3.958 15.41 1 18 1c2.38 0 3.197 2.21 4.239 3.996 1.024 1.756 1.285 4.03.731 6.246-.262 1.05-.934 2.141-1.728 3.16-.808 1.038-1.81 2.087-2.828 3.059-2.04 1.943-4.218 3.641-5.233 4.407-.7.53-1.661.53-2.362 0-1.015-.766-3.193-2.464-5.232-4.407-1.02-.972-2.021-2.02-2.829-3.058-.793-1.02-1.466-2.11-1.728-3.16-.554-2.217-.293-4.49.731-6.247C2.803 3.21 4.121 1 6.5 1c2.59 0 4.597 2.958 5.395 4.553q.054.108.105.217" clip-rule="evenodd"/></svg>
